X: 10874
T: SOLDIER'S DANCE
%R: jig
B: W. Hamilton "Universal Tune-Book" Vol. 1 Glasgow 1844 p.87 #4
S: http://imslp.org/wiki/Hamilton's_Universal_Tune-Book_(Various)
Z: 2016 John Chambers <jc:trillian.mit.edu>
M: 6/8
L: 1/8
K: A
% - - - - - - - - - - - - - - - - - - - - - - - - -
E |\
A2A AGA | B2B e2d | c2A AGA | GBG EFG |\
A2A AGA | B2B e2d | cBA BAG | A2A A2 :|
|: c |\
e2e cde | f2f f3  | g2g efg | a2a a3 |\
e2e cde | fga agf | edc BAG | A2A A2 :|
% - - - - - - - - - - - - - - - - - - - - - - - - -

%%sep 1 1 500
%%sep 1 1 500

